dist/images/icons/icon-text.svg

<svg width="66" height="65" viewBox="0 0 66 65" fill="none" xmlns="http://www.w3.org/2000/svg">
<g opacity="0.1">
<rect x="0.75" y="1.26855" width="64.5" height="62.8706" rx="9.75" fill="#D9D9D9"/>
<rect x="0.75" y="1.26855" width="64.5" height="62.8706" rx="9.75" fill="url(#paint0_linear_502_66)"/>
<rect x="0.75" y="1.26855" width="64.5" height="62.8706" rx="9.75" stroke="url(#paint1_linear_502_66)" stroke-width="1.5"/>
</g>
<mask id="path-2-outside-1_502_66" maskUnits="userSpaceOnUse" x="21" y="19.4785" width="24" height="26" fill="black">
<rect fill="white" x="21" y="19.4785" width="24" height="26"/>
<path fill-rule="evenodd" clip-rule="evenodd" d="M31.8086 20.4785H34.1914C36.265 20.4785 37.9077 20.4785 39.1927 20.649C40.515 20.825 41.5856 21.1948 42.4307 22.0281C43.2746 22.8626 43.6491 23.9198 43.8274 25.2254C44 26.4954 44 28.1164 44 30.164V34.7449C44 36.7925 44 38.4145 43.8274 39.6834C43.6491 40.9891 43.2746 42.0463 42.4307 42.8807C41.5856 43.714 40.515 44.0839 39.1927 44.2599C37.9066 44.4304 36.265 44.4304 34.1914 44.4304H31.8086C29.735 44.4304 28.0923 44.4304 26.8073 44.2599C25.485 44.0839 24.4144 43.714 23.5693 42.8807C22.7254 42.0463 22.3509 40.9891 22.1726 39.6834C22 38.4134 22 36.7925 22 34.7449V30.164C22 28.1164 22 26.4943 22.1726 25.2254C22.3509 23.9198 22.7254 22.8626 23.5693 22.0281C24.4144 21.1948 25.485 20.825 26.8073 20.649C28.0934 20.4785 29.735 20.4785 31.8086 20.4785ZM27.0318 22.3055C25.8968 22.4559 25.2425 22.7389 24.7641 23.2101C24.288 23.6814 24.0014 24.3275 23.8491 25.4482C23.6934 26.5935 23.6912 28.1019 23.6912 30.2264V34.6825C23.6912 36.807 23.6934 38.3165 23.8491 39.4617C24.0014 40.5814 24.288 41.2275 24.7652 41.6987C25.2425 42.17 25.8968 42.4529 27.0318 42.6033C28.1916 42.7571 29.7192 42.7593 31.8707 42.7593H34.1271C36.2786 42.7593 37.8073 42.7571 38.9671 42.6033C40.1009 42.4529 40.7553 42.17 41.2325 41.6987C41.7097 41.2275 41.9963 40.5814 42.1486 39.4606C42.3043 38.3165 42.3066 36.807 42.3066 34.6825V30.2264C42.3066 28.1019 42.3043 26.5935 42.1486 25.4471C41.9963 24.3275 41.7097 23.6814 41.2325 23.2101C40.7553 22.7389 40.1009 22.4559 38.966 22.3055C37.8073 22.1518 36.2786 22.1496 34.1271 22.1496H31.8707C29.7192 22.1496 28.1927 22.1518 27.0318 22.3055ZM27.641 30.2264C27.641 30.0048 27.7302 29.7922 27.8889 29.6355C28.0475 29.4789 28.2628 29.3908 28.4872 29.3908H37.5128C37.7372 29.3908 37.9525 29.4789 38.1111 29.6355C38.2698 29.7922 38.359 30.0048 38.359 30.2264C38.359 30.448 38.2698 30.6605 38.1111 30.8172C37.9525 30.9739 37.7372 31.0619 37.5128 31.0619H28.4872C28.2628 31.0619 28.0475 30.9739 27.8889 30.8172C27.7302 30.6605 27.641 30.448 27.641 30.2264ZM27.641 34.6825C27.641 34.4609 27.7302 34.2484 27.8889 34.0917C28.0475 33.935 28.2628 33.847 28.4872 33.847H34.1282C34.3526 33.847 34.5678 33.935 34.7265 34.0917C34.8852 34.2484 34.9744 34.4609 34.9744 34.6825C34.9744 34.9041 34.8852 35.1166 34.7265 35.2733C34.5678 35.43 34.3526 35.518 34.1282 35.518H28.4872C28.2628 35.518 28.0475 35.43 27.8889 35.2733C27.7302 35.1166 27.641 34.9041 27.641 34.6825Z"/>
</mask>
<path fill-rule="evenodd" clip-rule="evenodd" d="M31.8086 20.4785H34.1914C36.265 20.4785 37.9077 20.4785 39.1927 20.649C40.515 20.825 41.5856 21.1948 42.4307 22.0281C43.2746 22.8626 43.6491 23.9198 43.8274 25.2254C44 26.4954 44 28.1164 44 30.164V34.7449C44 36.7925 44 38.4145 43.8274 39.6834C43.6491 40.9891 43.2746 42.0463 42.4307 42.8807C41.5856 43.714 40.515 44.0839 39.1927 44.2599C37.9066 44.4304 36.265 44.4304 34.1914 44.4304H31.8086C29.735 44.4304 28.0923 44.4304 26.8073 44.2599C25.485 44.0839 24.4144 43.714 23.5693 42.8807C22.7254 42.0463 22.3509 40.9891 22.1726 39.6834C22 38.4134 22 36.7925 22 34.7449V30.164C22 28.1164 22 26.4943 22.1726 25.2254C22.3509 23.9198 22.7254 22.8626 23.5693 22.0281C24.4144 21.1948 25.485 20.825 26.8073 20.649C28.0934 20.4785 29.735 20.4785 31.8086 20.4785ZM27.0318 22.3055C25.8968 22.4559 25.2425 22.7389 24.7641 23.2101C24.288 23.6814 24.0014 24.3275 23.8491 25.4482C23.6934 26.5935 23.6912 28.1019 23.6912 30.2264V34.6825C23.6912 36.807 23.6934 38.3165 23.8491 39.4617C24.0014 40.5814 24.288 41.2275 24.7652 41.6987C25.2425 42.17 25.8968 42.4529 27.0318 42.6033C28.1916 42.7571 29.7192 42.7593 31.8707 42.7593H34.1271C36.2786 42.7593 37.8073 42.7571 38.9671 42.6033C40.1009 42.4529 40.7553 42.17 41.2325 41.6987C41.7097 41.2275 41.9963 40.5814 42.1486 39.4606C42.3043 38.3165 42.3066 36.807 42.3066 34.6825V30.2264C42.3066 28.1019 42.3043 26.5935 42.1486 25.4471C41.9963 24.3275 41.7097 23.6814 41.2325 23.2101C40.7553 22.7389 40.1009 22.4559 38.966 22.3055C37.8073 22.1518 36.2786 22.1496 34.1271 22.1496H31.8707C29.7192 22.1496 28.1927 22.1518 27.0318 22.3055ZM27.641 30.2264C27.641 30.0048 27.7302 29.7922 27.8889 29.6355C28.0475 29.4789 28.2628 29.3908 28.4872 29.3908H37.5128C37.7372 29.3908 37.9525 29.4789 38.1111 29.6355C38.2698 29.7922 38.359 30.0048 38.359 30.2264C38.359 30.448 38.2698 30.6605 38.1111 30.8172C37.9525 30.9739 37.7372 31.0619 37.5128 31.0619H28.4872C28.2628 31.0619 28.0475 30.9739 27.8889 30.8172C27.7302 30.6605 27.641 30.448 27.641 30.2264ZM27.641 34.6825C27.641 34.4609 27.7302 34.2484 27.8889 34.0917C28.0475 33.935 28.2628 33.847 28.4872 33.847H34.1282C34.3526 33.847 34.5678 33.935 34.7265 34.0917C34.8852 34.2484 34.9744 34.4609 34.9744 34.6825C34.9744 34.9041 34.8852 35.1166 34.7265 35.2733C34.5678 35.43 34.3526 35.518 34.1282 35.518H28.4872C28.2628 35.518 28.0475 35.43 27.8889 35.2733C27.7302 35.1166 27.641 34.9041 27.641 34.6825Z" fill="#BAE9F1"/>
<path fill-rule="evenodd" clip-rule="evenodd" d="M31.8086 20.4785H34.1914C36.265 20.4785 37.9077 20.4785 39.1927 20.649C40.515 20.825 41.5856 21.1948 42.4307 22.0281C43.2746 22.8626 43.6491 23.9198 43.8274 25.2254C44 26.4954 44 28.1164 44 30.164V34.7449C44 36.7925 44 38.4145 43.8274 39.6834C43.6491 40.9891 43.2746 42.0463 42.4307 42.8807C41.5856 43.714 40.515 44.0839 39.1927 44.2599C37.9066 44.4304 36.265 44.4304 34.1914 44.4304H31.8086C29.735 44.4304 28.0923 44.4304 26.8073 44.2599C25.485 44.0839 24.4144 43.714 23.5693 42.8807C22.7254 42.0463 22.3509 40.9891 22.1726 39.6834C22 38.4134 22 36.7925 22 34.7449V30.164C22 28.1164 22 26.4943 22.1726 25.2254C22.3509 23.9198 22.7254 22.8626 23.5693 22.0281C24.4144 21.1948 25.485 20.825 26.8073 20.649C28.0934 20.4785 29.735 20.4785 31.8086 20.4785ZM27.0318 22.3055C25.8968 22.4559 25.2425 22.7389 24.7641 23.2101C24.288 23.6814 24.0014 24.3275 23.8491 25.4482C23.6934 26.5935 23.6912 28.1019 23.6912 30.2264V34.6825C23.6912 36.807 23.6934 38.3165 23.8491 39.4617C24.0014 40.5814 24.288 41.2275 24.7652 41.6987C25.2425 42.17 25.8968 42.4529 27.0318 42.6033C28.1916 42.7571 29.7192 42.7593 31.8707 42.7593H34.1271C36.2786 42.7593 37.8073 42.7571 38.9671 42.6033C40.1009 42.4529 40.7553 42.17 41.2325 41.6987C41.7097 41.2275 41.9963 40.5814 42.1486 39.4606C42.3043 38.3165 42.3066 36.807 42.3066 34.6825V30.2264C42.3066 28.1019 42.3043 26.5935 42.1486 25.4471C41.9963 24.3275 41.7097 23.6814 41.2325 23.2101C40.7553 22.7389 40.1009 22.4559 38.966 22.3055C37.8073 22.1518 36.2786 22.1496 34.1271 22.1496H31.8707C29.7192 22.1496 28.1927 22.1518 27.0318 22.3055ZM27.641 30.2264C27.641 30.0048 27.7302 29.7922 27.8889 29.6355C28.0475 29.4789 28.2628 29.3908 28.4872 29.3908H37.5128C37.7372 29.3908 37.9525 29.4789 38.1111 29.6355C38.2698 29.7922 38.359 30.0048 38.359 30.2264C38.359 30.448 38.2698 30.6605 38.1111 30.8172C37.9525 30.9739 37.7372 31.0619 37.5128 31.0619H28.4872C28.2628 31.0619 28.0475 30.9739 27.8889 30.8172C27.7302 30.6605 27.641 30.448 27.641 30.2264ZM27.641 34.6825C27.641 34.4609 27.7302 34.2484 27.8889 34.0917C28.0475 33.935 28.2628 33.847 28.4872 33.847H34.1282C34.3526 33.847 34.5678 33.935 34.7265 34.0917C34.8852 34.2484 34.9744 34.4609 34.9744 34.6825C34.9744 34.9041 34.8852 35.1166 34.7265 35.2733C34.5678 35.43 34.3526 35.518 34.1282 35.518H28.4872C28.2628 35.518 28.0475 35.43 27.8889 35.2733C27.7302 35.1166 27.641 34.9041 27.641 34.6825Z" stroke="#BAE9F1" stroke-width="0.8" mask="url(#path-2-outside-1_502_66)"/>
<defs>
<linearGradient id="paint0_linear_502_66" x1="33" y1="0.518555" x2="52.0311" y2="87.7734" gradientUnits="userSpaceOnUse">
<stop stop-color="#2C4262"/>
<stop offset="1" stop-color="#202F45"/>
</linearGradient>
<linearGradient id="paint1_linear_502_66" x1="33" y1="0.518555" x2="33" y2="64.8891" gradientUnits="userSpaceOnUse">
<stop stop-color="white"/>
<stop offset="1" stop-color="white" stop-opacity="0"/>
</linearGradient>
</defs>
</svg>

<svg width="66" height="65" fill="none" xmlns="http://www.w3.org/2000/svg"><g opacity=".1"><rect x=".75" y="1.269" width="64.5" height="62.871" rx="9.75" fill="#D9D9D9"/><rect x=".75" y="1.269" width="64.5" height="62.871" rx="9.75" fill="url(#paint0_linear_502_66)"/><rect x=".75" y="1.269" width="64.5" height="62.871" rx="9.75" stroke="url(#paint1_linear_502_66)" stroke-width="1.5"/></g><mask id="a" maskUnits="userSpaceOnUse" x="21" y="19.479" width="24" height="26" fill="#000"><path fill="#fff" d="M21 19.479h24v26H21z"/><path fill-rule="evenodd" clip-rule="evenodd" d="M31.809 20.479h2.382c2.074 0 3.717 0 5.002.17 1.322.176 2.393.546 3.238 1.38.844.834 1.218 1.89 1.396 3.196.173 1.27.173 2.891.173 4.939v4.58c0 2.048 0 3.67-.173 4.94-.178 1.305-.552 2.362-1.396 3.197-.845.833-1.916 1.203-3.238 1.379-1.286.17-2.928.17-5.002.17H31.81c-2.074 0-3.717 0-5.002-.17-1.322-.176-2.393-.546-3.238-1.38-.844-.834-1.218-1.89-1.396-3.197C22 38.413 22 36.793 22 34.745v-4.581c0-2.048 0-3.67.173-4.939.178-1.305.552-2.362 1.396-3.197.845-.833 1.916-1.203 3.238-1.379 1.286-.17 2.928-.17 5.002-.17zm-4.777 1.826c-1.135.15-1.79.434-2.268.905-.476.471-.763 1.117-.915 2.238-.156 1.145-.158 2.654-.158 4.778v4.456c0 2.125.002 3.634.158 4.78.152 1.12.439 1.765.916 2.237.477.471 1.132.754 2.267.904 1.16.154 2.687.156 4.839.156h2.256c2.152 0 3.68-.002 4.84-.156 1.134-.15 1.788-.433 2.266-.904.477-.471.763-1.118.916-2.238.155-1.145.158-2.654.158-4.779v-4.456c0-2.124-.003-3.633-.158-4.779-.153-1.12-.44-1.766-.916-2.237-.478-.471-1.132-.754-2.267-.905-1.159-.153-2.687-.155-4.839-.155h-2.256c-2.152 0-3.678.002-4.84.155zm.609 7.921a.83.83 0 01.248-.59.852.852 0 01.598-.245h9.026a.85.85 0 01.598.245.83.83 0 010 1.181.851.851 0 01-.598.245h-9.026a.851.851 0 01-.598-.245.83.83 0 01-.248-.59zm0 4.456a.83.83 0 01.248-.59.851.851 0 01.598-.245h5.641c.225 0 .44.088.599.245a.83.83 0 010 1.181.852.852 0 01-.599.245h-5.64a.851.851 0 01-.6-.245.83.83 0 01-.247-.59z"/></mask><path fill-rule="evenodd" clip-rule="evenodd" d="M31.809 20.479h2.382c2.074 0 3.717 0 5.002.17 1.322.176 2.393.546 3.238 1.38.844.834 1.218 1.89 1.396 3.196.173 1.27.173 2.891.173 4.939v4.58c0 2.048 0 3.67-.173 4.94-.178 1.305-.552 2.362-1.396 3.197-.845.833-1.916 1.203-3.238 1.379-1.286.17-2.928.17-5.002.17H31.81c-2.074 0-3.717 0-5.002-.17-1.322-.176-2.393-.546-3.238-1.38-.844-.834-1.218-1.89-1.396-3.197C22 38.413 22 36.793 22 34.745v-4.581c0-2.048 0-3.67.173-4.939.178-1.305.552-2.362 1.396-3.197.845-.833 1.916-1.203 3.238-1.379 1.286-.17 2.928-.17 5.002-.17zm-4.777 1.826c-1.135.15-1.79.434-2.268.905-.476.471-.763 1.117-.915 2.238-.156 1.145-.158 2.654-.158 4.778v4.456c0 2.125.002 3.634.158 4.78.152 1.12.439 1.765.916 2.237.477.471 1.132.754 2.267.904 1.16.154 2.687.156 4.839.156h2.256c2.152 0 3.68-.002 4.84-.156 1.134-.15 1.788-.433 2.266-.904.477-.471.763-1.118.916-2.238.155-1.145.158-2.654.158-4.779v-4.456c0-2.124-.003-3.633-.158-4.779-.153-1.12-.44-1.766-.916-2.237-.478-.471-1.132-.754-2.267-.905-1.159-.153-2.687-.155-4.839-.155h-2.256c-2.152 0-3.678.002-4.84.155zm.609 7.921a.83.83 0 01.248-.59.852.852 0 01.598-.245h9.026a.85.85 0 01.598.245.83.83 0 010 1.181.851.851 0 01-.598.245h-9.026a.851.851 0 01-.598-.245.83.83 0 01-.248-.59zm0 4.456a.83.83 0 01.248-.59.851.851 0 01.598-.245h5.641c.225 0 .44.088.599.245a.83.83 0 010 1.181.852.852 0 01-.599.245h-5.64a.851.851 0 01-.6-.245.83.83 0 01-.247-.59z" fill="#BAE9F1"/><path clip-rule="evenodd" d="M31.809 20.479h2.382c2.074 0 3.717 0 5.002.17 1.322.176 2.393.546 3.238 1.38.844.834 1.218 1.89 1.396 3.196.173 1.27.173 2.891.173 4.939v4.58c0 2.048 0 3.67-.173 4.94-.178 1.305-.552 2.362-1.396 3.197-.845.833-1.916 1.203-3.238 1.379-1.286.17-2.928.17-5.002.17H31.81c-2.074 0-3.717 0-5.002-.17-1.322-.176-2.393-.546-3.238-1.38-.844-.834-1.218-1.89-1.396-3.197C22 38.413 22 36.793 22 34.745v-4.581c0-2.048 0-3.67.173-4.939.178-1.305.552-2.362 1.396-3.197.845-.833 1.916-1.203 3.238-1.379 1.286-.17 2.928-.17 5.002-.17zm-4.777 1.826c-1.135.15-1.79.434-2.268.905-.476.471-.763 1.117-.915 2.238-.156 1.145-.158 2.654-.158 4.778v4.456c0 2.125.002 3.634.158 4.78.152 1.12.439 1.765.916 2.237.477.471 1.132.754 2.267.904 1.16.154 2.687.156 4.839.156h2.256c2.152 0 3.68-.002 4.84-.156 1.134-.15 1.788-.433 2.266-.904.477-.471.763-1.118.916-2.238.155-1.145.158-2.654.158-4.779v-4.456c0-2.124-.003-3.633-.158-4.779-.153-1.12-.44-1.766-.916-2.237-.478-.471-1.132-.754-2.267-.905-1.159-.153-2.687-.155-4.839-.155h-2.256c-2.152 0-3.678.002-4.84.155zm.609 7.921a.83.83 0 01.248-.59.852.852 0 01.598-.245h9.026a.85.85 0 01.598.245.83.83 0 010 1.181.851.851 0 01-.598.245h-9.026a.851.851 0 01-.598-.245.83.83 0 01-.248-.59zm0 4.456a.83.83 0 01.248-.59.851.851 0 01.598-.245h5.641c.225 0 .44.088.599.245a.83.83 0 010 1.181.852.852 0 01-.599.245h-5.64a.851.851 0 01-.6-.245.83.83 0 01-.247-.59z" stroke="#BAE9F1" stroke-width=".8" mask="url(#a)"/><defs><linearGradient id="paint0_linear_502_66" x1="33" y1=".519" x2="52.031" y2="87.773" gradientUnits="userSpaceOnUse"><stop stop-color="#2C4262"/><stop offset="1" stop-color="#202F45"/></linearGradient><linearGradient id="paint1_linear_502_66" x1="33" y1=".519" x2="33" y2="64.889" gradientUnits="userSpaceOnUse"><stop stop-color="#fff"/><stop offset="1" stop-color="#fff" stop-opacity="0"/></linearGradient></defs></svg>
